icons/thumbsup-24.svg

<svg width="24" height="24" viewBox="0 0 24 24" fill="none" xmlns="http://www.w3.org/2000/svg">
<path d="M13.3488 2.3779C13.5109 2.09433 13.8378 1.94822 14.1571 2.01665L14.2843 2.0439C16.5243 2.52391 17.8612 4.83198 17.163 7.01389L16.5275 9H17.6643C20.3092 9 22.1768 11.5912 21.3404 14.1004L19.7813 18.7777C19.339 20.1049 18.097 21 16.6981 21H11.409C10.3782 21 9.38044 20.6461 8.58131 20.0006C8.30032 20.5915 7.69787 21 7 21H4.75C3.7835 21 3 20.2165 3 19.25V10.75C3 9.78351 3.7835 9 4.75 9H9.41968C9.50939 9 9.59223 8.95193 9.63674 8.87404L13.3488 2.3779ZM8.75 18.1597L9.43349 18.7577C9.98037 19.2362 10.6823 19.5 11.409 19.5H16.6981C17.4514 19.5 18.1201 19.018 18.3583 18.3034L19.9174 13.626C20.43 12.0882 19.2854 10.5 17.6643 10.5H15.5C15.2605 10.5 15.0354 10.3856 14.8942 10.1922C14.753 9.99876 14.7127 9.74952 14.7857 9.52142L15.7344 6.55673C16.1199 5.3519 15.493 4.08431 14.361 3.62985L10.9391 9.61825C10.6275 10.1635 10.0477 10.5 9.41968 10.5H8.75V18.1597ZM7.25 10.5H4.75C4.61193 10.5 4.5 10.6119 4.5 10.75V19.25C4.5 19.3881 4.61193 19.5 4.75 19.5H7C7.13807 19.5 7.25 19.3881 7.25 19.25V10.5Z" fill="black"/>
</svg>

<svg xmlns="http://www.w3.org/2000/svg" width="24" height="24" viewBox="0 0 24 24"><path d="M13.349 2.378a.748.748 0 0 1 .808-.361l.127.027a3.875 3.875 0 0 1 2.879 4.97L16.527 9h1.137c2.645 0 4.513 2.591 3.676 5.1l-1.559 4.678A3.25 3.25 0 0 1 16.698 21h-5.289a4.503 4.503 0 0 1-2.828-.999A1.75 1.75 0 0 1 7 21H4.75A1.75 1.75 0 0 1 3 19.25v-8.5C3 9.784 3.784 9 4.75 9h4.67a.251.251 0 0 0 .217-.126l3.712-6.496ZM8.75 18.16l.683.598a3.003 3.003 0 0 0 1.976.742h5.289a1.75 1.75 0 0 0 1.66-1.197l1.559-4.677a2.375 2.375 0 0 0-2.253-3.126H15.5a.75.75 0 0 1-.714-.979l.948-2.964a2.375 2.375 0 0 0-1.373-2.927l-3.422 5.988a1.749 1.749 0 0 1-1.519.882h-.67v7.66Zm-1.5-7.66h-2.5a.25.25 0 0 0-.25.25v8.5c0 .138.112.25.25.25H7a.25.25 0 0 0 .25-.25V10.5Z"/></svg>
